X: 8186
T: Cooley's
R: hornpipe
M: 4/4
K: Gmajor
(3def|gGFG (3EFG DC|B,G, B,D GB dg|eGce dGBG|(3cBA BG Adef|
gGFG (3EFG DC|B,G, B,D GB dg|ecAG FAdc|B2 G2 G2:|
|:GA|BG (3Bcd ed Bd|g2 bg eg (3def|gfge dGBd|cABG Ad^c=c|
BGDC (3B,CD GD|EGcE DG,B,D|Ggfe dBcA|B2 G2G2:|

